X:1
T:Title
%%score { 1 | 2 }
L:1/8
Q:1/4=104
M:4/4
K:Eb
V:1 treble nm="Grand Piano"
V:2 bass 
V:1
 GGGG G2 [FA]2 | [GB]2 [Ac]2 [GB]2 [EG]2 | [DF][DF][DF][_D=E] [=DF]2 [_EG]2 | [FA]2 [EG]2 [DF]4 | %4
w: Chas.~H.~Gabriel * * * * *||||
 GGGG G2 [FA]2 | [GB]2 [Ac]2 [GB]2 [EG]2 | [DF][DF][DF][_D=E] [=DF]2 [FA]2 | [EG]2 [DF]2 E4 | %8
w: ||||
 c2 c2 c3 =B | c2 [ce]2 [Bd]2 [Ac]2 | [GB]2 [GB]2 [GB]3 [_G=A] | [GB]2 [Ac]2 [GB]4 | %12
w: ||||
 [DFB][DF][DF][EG] [FA]2 [FA][FA] | [EG][FA][GB][Ac] [GB]4 | [Ac]2 [ce]2 [Bd]2 [Ac]2 | %15
w: |||
 [GB]2 [Ge]4 [EG]2 | [GB]2 [GB]2 [FA]2 [DF]2 | E6 z2 |] %18
w: |||
V:2
 [E,B,E][E,B,E][E,B,E][E,B,E] [E,B,E]2 [E,B,]2 | [E,E]2 [E,E]2 [E,E]2 [E,B,]2 | %2
 [B,,B,][B,,B,][B,,B,][B,,B,] [B,,B,]2 [B,,B,]2 | [D,B,]2 [E,B,]2 [B,,B,]4 | %4
 [E,B,E][E,B,E][E,B,E][E,B,E] [E,B,E]2 [E,B,]2 | [E,E]2 [E,E]2 [E,E]2 [E,B,]2 | %6
 [B,,B,][B,,B,][B,,B,][B,,B,] [B,,B,]2 [D,B,]2 | [E,B,]2 [B,,A,]2 [E,G,]4 | %8
 [A,EA]2 [A,EA]2 [A,EA]3 [A,EG] | [A,EA]2[K:bass] [A,E]2 [A,E]2 [A,E]2 | %10
 [E,E]2 [E,E]2 [E,E]3 [E,E] | [E,E]2 [E,E]2 [E,E]4 | %12
 B,,[B,,B,][B,,B,][B,,B,] [B,,B,]2 [B,,B,][B,,B,] | [E,B,][E,B,][E,E][E,E] [E,E]4 | %14
 [A,E]2 [A,E]2 [A,E]2 [A,E]2 | [E,E]2 [E,B,]4 [E,B,]2 | [B,,B,]2 [B,,B,]2 [B,,B,]2 [B,,A,]2 | %17
 [E,G,]6 z2 |] %18

